public/img/logos/es6.svg

<?xml version="1.0" encoding="UTF-8" standalone="no" ?>
<svg width="256px" height="256px" viewBox="0 0 256 256" version="1.1" xmlns="http://www.w3.org/2000/svg" xmlns:xlink="http://www.w3.org/1999/xlink" preserveAspectRatio="xMidYMid">
    <g>
        <rect fill="#F26522" x="0" y="0" width="256" height="256"></rect>
        <path d="M105.536115,159.958938 L144.693011,159.958938 L144.693011,149.305958 L117.628686,149.305958 L117.628686,132.798639 L142.58161,132.798639 L142.58161,122.14566 L117.628686,122.14566 L117.628686,106.694042 L144.693011,106.694042 L144.693011,96.041063 L105.536115,96.041063 L105.536115,159.958938 L105.536115,159.958938 Z M196.998179,142.587864 C196.998179,129.823483 196.134424,127.040272 178.955295,122.913443 C167.918425,120.226205 167.72648,120.034259 167.72648,112.740327 C167.72648,107.173906 169.166071,105.446396 177.323758,105.446396 C182.89018,105.446396 189.128411,106.214178 194.406914,107.365852 L195.750532,97.1927363 C189.416329,95.7531445 182.698234,95.0813351 177.131813,95.0813351 C160.912412,95.0813351 155.633909,100.839702 155.633909,112.452409 C155.633909,125.984572 157.74531,128.959728 173.196928,132.414748 C184.713662,134.910041 184.905608,135.485878 184.905608,142.587864 C184.905608,148.730122 183.466016,150.553605 174.732493,150.553605 C168.398289,150.553605 162.639922,149.401932 156.689609,147.578448 L154.578208,157.079753 C158.801011,159.095183 167.246615,160.918665 174.540547,160.918665 C193.447186,160.918665 196.998179,154.680435 196.998179,142.587864 L196.998179,142.587864 L196.998179,142.587864 Z M219.263865,118.786613 C219.263865,108.997389 223.966531,107.077933 235.29132,107.077933 C237.306748,107.077933 241.52955,107.365852 244.312761,107.941688 L245.080544,98.1524641 C242.20136,97.4806547 237.594667,97.0007908 234.043674,97.0007908 C216.576627,97.0007908 207.555185,102.375267 207.555185,119.266477 L207.555185,142.587864 C207.555185,153.624734 210.81826,160.918665 227.325579,160.918665 C242.393306,160.918665 247,153.432789 247,143.451618 L247,138.844925 C247,127.808055 242.297333,123.009415 230.684626,123.009415 C226.557797,123.009415 222.622912,123.585252 219.263865,124.736926 L219.263865,118.786613 L219.263865,118.786613 Z M228.861143,133.086558 C233.083946,133.086558 235.29132,134.526149 235.29132,139.132844 L235.29132,143.83551 C235.29132,148.730122 233.371865,150.841523 227.325579,150.841523 C221.279294,150.841523 219.263865,149.114013 219.263865,143.83551 L219.263865,135.101987 C221.951102,133.950313 225.406123,133.086558 228.861143,133.086558 L228.861143,133.086558 L228.861143,133.086558 Z" fill="#FFFFFF"></path>
    </g>
</svg>

<svg width="256" height="256" viewBox="0 0 256 256" xmlns="http://www.w3.org/2000/svg" preserveAspectRatio="xMidYMid"><path fill="#F26522" d="M0 0h256v256h-256z"/><path d="M105.536 159.959h39.157v-10.653h-27.064v-16.507h24.953v-10.653h-24.953v-15.452h27.064v-10.653h-39.157v63.918zm91.462-17.371c0-12.764-.864-15.548-18.043-19.674-11.037-2.687-11.229-2.879-11.229-10.173 0-5.566 1.44-7.294 9.597-7.294 5.566 0 11.805.768 17.083 1.919l1.344-10.173c-6.334-1.44-13.052-2.111-18.619-2.111-16.219 0-21.498 5.758-21.498 17.371 0 13.532 2.111 16.507 17.563 19.962 11.517 2.495 11.709 3.071 11.709 10.173 0 6.142-1.44 7.966-10.173 7.966-6.334 0-12.093-1.152-18.043-2.975l-2.111 9.501c4.223 2.015 12.668 3.839 19.962 3.839 18.907 0 22.458-6.238 22.458-18.331zm22.266-23.801c0-9.789 4.703-11.709 16.027-11.709 2.015 0 6.238.288 9.021.864l.768-9.789c-2.879-.672-7.486-1.152-11.037-1.152-17.467 0-26.488 5.374-26.488 22.266v23.321c0 11.037 3.263 18.331 19.77 18.331 15.068 0 19.674-7.486 19.674-17.467v-4.607c0-11.037-4.703-15.836-16.315-15.836-4.127 0-8.062.576-11.421 1.728v-5.95zm9.597 14.3c4.223 0 6.43 1.44 6.43 6.046v4.703c0 4.895-1.919 7.006-7.966 7.006-6.046 0-8.062-1.728-8.062-7.006v-8.734c2.687-1.152 6.142-2.015 9.597-2.015z" fill="#fff"/></svg>
